Newaita-dark/actions/22/draw-rectangle.svg

<svg height="22" viewBox="0 0 22 22" width="22" xmlns="http://www.w3.org/2000/svg"><path d="m3.636719 2.902344c-.503907 0-.90625.402344-.90625.90625v14.554687c0 .503907.402343.910157.90625.910157h14.554687c.503906 0 .910156-.40625.910156-.910157v-14.554687c0-.503906-.40625-.90625-.910156-.90625zm1.367187 1.816406h11.824219c.25 0 .453125.203125.453125.457031v11.824219c0 .25-.203125.453125-.453125.453125h-11.824219c-.253906 0-.457031-.203125-.457031-.453125v-11.824219c0-.253906.203125-.457031.457031-.457031zm0 0" fill="#e0e0e0"/></svg>

<?xml version="1.0" encoding="UTF-8"?>
<svg xmlns="http://www.w3.org/2000/svg" xmlns:xlink="http://www.w3.org/1999/xlink" width="22px" height="22px" viewBox="0 0 22 22" version="1.1">
<g id="surface1">
<path style=" stroke:none;fill-rule:nonzero;fill:rgb(87.843138%,87.843138%,87.843138%);fill-opacity:1;" d="M 3.636719 2.902344 C 3.132812 2.902344 2.730469 3.304688 2.730469 3.808594 L 2.730469 18.363281 C 2.730469 18.867188 3.132812 19.273438 3.636719 19.273438 L 18.191406 19.273438 C 18.695312 19.273438 19.101562 18.867188 19.101562 18.363281 L 19.101562 3.808594 C 19.101562 3.304688 18.695312 2.902344 18.191406 2.902344 Z M 5.003906 4.71875 L 16.828125 4.71875 C 17.078125 4.71875 17.28125 4.921875 17.28125 5.175781 L 17.28125 17 C 17.28125 17.25 17.078125 17.453125 16.828125 17.453125 L 5.003906 17.453125 C 4.75 17.453125 4.546875 17.25 4.546875 17 L 4.546875 5.175781 C 4.546875 4.921875 4.75 4.71875 5.003906 4.71875 Z M 5.003906 4.71875 "/>
</g>
</svg>
